assets/img/carpet.svg

<?xml version="1.0" encoding="UTF-8" standalone="no"?>
<!-- Created with Inkscape (http://www.inkscape.org/) -->

<svg
   width="110"
   height="156.00002"
   version="1.1"
   viewBox="0 0 110 156.00002"
   xml:space="preserve"
   id="svg32"
   sodipodi:docname="carpet.svg"
   inkscape:version="1.3.2 (091e20ef0f, 2023-11-25)"
   inkscape:export-filename="carpet.svg"
   inkscape:export-xdpi="96"
   inkscape:export-ydpi="96"
   xmlns:inkscape="http://www.inkscape.org/namespaces/inkscape"
   xmlns:sodipodi="http://sodipodi.sourceforge.net/DTD/sodipodi-0.dtd"
   xmlns="http://www.w3.org/2000/svg"
   xmlns:svg="http://www.w3.org/2000/svg"><sodipodi:namedview
   id="namedview32"
   pagecolor="#ffffff"
   bordercolor="#000000"
   borderopacity="0.25"
   inkscape:showpageshadow="2"
   inkscape:pageopacity="0.0"
   inkscape:pagecheckerboard="0"
   inkscape:deskcolor="#d1d1d1"
   inkscape:zoom="3.4973025"
   inkscape:cx="-42.890199"
   inkscape:cy="66.193873"
   inkscape:window-width="1920"
   inkscape:window-height="1011"
   inkscape:window-x="0"
   inkscape:window-y="0"
   inkscape:window-maximized="1"
   inkscape:current-layer="svg32"
   showguides="true"><sodipodi:guide
     position="-21.159164,174.01393"
     orientation="1,0"
     id="guide35"
     inkscape:locked="false" /></sodipodi:namedview>
  <defs
   id="defs15"><clipPath
     id="clipPath121">
      <rect
   x="0.00017794"
   y="-1.1066001e-06"
   width="116.4"
   height="163.36"
   fill="#63ad65"
   id="rect1" />
    </clipPath><clipPath
     id="clipPath122">
      <rect
   x="0.00017794"
   y="-1.1066001e-06"
   width="116.4"
   height="163.36"
   fill="#63ad65"
   id="rect2" />
    </clipPath><clipPath
     id="clipPath123">
      <rect
   x="0.00017794"
   y="-1.1066001e-06"
   width="116.4"
   height="163.36"
   fill="#63ad65"
   id="rect3" />
    </clipPath><clipPath
     id="clipPath124">
      <rect
   x="0.00017794"
   y="-1.1066001e-06"
   width="116.4"
   height="163.36"
   fill="#63ad65"
   id="rect4" />
    </clipPath><clipPath
     id="clipPath125">
      <rect
   x="0.00017794"
   y="-1.1066001e-06"
   width="116.4"
   height="163.36"
   fill="#63ad65"
   id="rect5" />
    </clipPath><clipPath
     id="clipPath126">
      <rect
   x="0.00017794"
   y="-1.1066001e-06"
   width="116.4"
   height="163.36"
   fill="#63ad65"
   id="rect6" />
    </clipPath><clipPath
     id="clipPath127">
      <rect
   x="0.00017794"
   y="-1.1066001e-06"
   width="116.4"
   height="163.36"
   fill="#63ad65"
   id="rect7" />
    </clipPath><clipPath
     id="clipPath128">
      <rect
   x="0.00017794"
   y="-1.1066001e-06"
   width="116.4"
   height="163.36"
   fill="#63ad65"
   id="rect8" />
    </clipPath><clipPath
     id="clipPath129">
      <rect
   x="0.00017794"
   y="-1.1066001e-06"
   width="116.4"
   height="163.36"
   fill="#63ad65"
   id="rect9" />
    </clipPath><clipPath
     id="clipPath130">
      <rect
   x="0.00017794"
   y="-1.1066001e-06"
   width="116.4"
   height="163.36"
   fill="#63ad65"
   id="rect10" />
    </clipPath><clipPath
     id="clipPath131">
      <rect
   x="0.00017794"
   y="-1.1066001e-06"
   width="116.4"
   height="163.36"
   fill="#63ad65"
   id="rect11" />
    </clipPath><clipPath
     id="clipPath132">
      <rect
   x="0.00017794"
   y="-1.1066001e-06"
   width="116.4"
   height="163.36"
   fill="#63ad65"
   id="rect12" />
    </clipPath><clipPath
     id="clipPath133">
      <rect
   x="0.00017794"
   y="-1.1066001e-06"
   width="116.4"
   height="163.36"
   fill="#63ad65"
   id="rect13" />
    </clipPath><clipPath
     id="clipPath134">
      <rect
   x="0.00017794"
   y="-1.1066001e-06"
   width="116.4"
   height="163.36"
   fill="#63ad65"
   id="rect14" />
    </clipPath><clipPath
     id="clipPath135">
      <rect
   x="0.00017794"
   y="-1.1066001e-06"
   width="116.4"
   height="163.36"
   fill="#63ad65"
   id="rect15" />
    </clipPath><clipPath
     id="clipPath144">
      <path
   d="M -57.9,-128.91 H 57.9 V 33.85 H -57.9 Z"
   fill="#2c1717"
   stroke-linecap="square"
   stroke-linejoin="bevel"
   stroke-width="16.367"
   id="path15" />
    </clipPath></defs>
  <g
   transform="matrix(0.94991364,0,0,0.95846645,55,123.55591)"
   clip-path="url(#clipPath144)"
   id="g32"
   inkscape:export-filename="./g32.svg"
   inkscape:export-xdpi="96"
   inkscape:export-ydpi="96">
    <g
   transform="translate(-58.2,-129.21)"
   clip-path="none"
   id="g31">
      <path
   d="m 58.201,33.603 58.201,33.602 V 134.41 L 58.201,168.012 0,134.41 1.3268e-6,67.205 Z"
   clip-path="url(#clipPath135)"
   fill="#2c1717"
   stroke="#2c1717"
   stroke-width="16.694"
   id="path16" />
      <path
   d="m 58.2,52.729 41.637,24.039 -2e-6,48.079 -41.637,24.039 -41.637,-24.039 2e-6,-48.079 z"
   clip-path="url(#clipPath134)"
   fill="#2c1717"
   stroke="#c9450e"
   stroke-width="16.688"
   id="path17" />
      <path
   d="m 58.2,81.576 16.655,9.6158 -10e-7,19.232 -16.655,9.6158 -16.655,-9.6158 1e-6,-19.232 z"
   clip-path="url(#clipPath133)"
   fill="#8c0814"
   id="path18" />
      <path
   d="m 116.4,115.28 41.637,24.039 v 48.079 l -41.637,24.039 -41.637,-24.039 2e-6,-48.079 z"
   clip-path="url(#clipPath132)"
   fill="#2c1717"
   stroke="#c9450e"
   stroke-width="16.688"
   id="path19" />
      <path
   d="m 116.4,144.13 16.655,9.6158 v 19.232 l -16.655,9.6158 -16.655,-9.6158 10e-7,-19.232 z"
   clip-path="url(#clipPath131)"
   fill="#8c0814"
   id="path20" />
      <path
   d="m 116.4,-67.204 58.201,33.602 -1e-5,67.205 -58.201,33.602 -58.201,-33.602 10e-7,-67.205 z"
   clip-path="url(#clipPath130)"
   fill="#2c1717"
   stroke="#2c1717"
   stroke-width="16.694"
   id="path21" />
      <path
   d="m 116.4,-48.078 41.637,24.039 V 24.04 L 116.4,48.079 74.763,24.04 l 2e-6,-48.079 z"
   clip-path="url(#clipPath129)"
   fill="#2c1717"
   stroke="#c9450e"
   stroke-width="16.688"
   id="path22" />
      <path
   d="m 116.4,-19.231 16.655,9.6158 V 9.6168 L 116.4,19.2326 99.745,9.6168 l 10e-7,-19.232 z"
   clip-path="url(#clipPath128)"
   fill="#8c0814"
   id="path23" />
      <path
   d="M 2.5615e-6,-67.204 58.201003,-33.602 58.201001,33.603 5.6149999e-7,67.205 -58.200999,33.603 l 1e-6,-67.205 z"
   clip-path="url(#clipPath127)"
   fill="#2c1717"
   stroke="#2c1717"
   stroke-width="16.694"
   id="path24" />
      <path
   d="M 2.0491e-6,-48.078 41.637002,-24.039 41.637001,24.04 1.0491e-6,48.079 -41.636999,24.04 l 2e-6,-48.079 z"
   clip-path="url(#clipPath126)"
   fill="#2c1717"
   stroke="#c9450e"
   stroke-width="16.688"
   id="path25" />
      <path
   d="M 1.2761e-6,-19.231 16.655001,-9.6152 16.655,9.6168 2.761e-7,19.2326 -16.655,9.6168 l 1e-6,-19.232 z"
   clip-path="url(#clipPath125)"
   fill="#8c0814"
   id="path26" />
      <path
   d="M 2.0491e-6,115.28 41.637002,139.319 l -1e-6,48.079 L 1.0491e-6,211.437 -41.636999,187.398 l 2e-6,-48.079 z"
   clip-path="url(#clipPath124)"
   fill="#2c1717"
   stroke="#c9450e"
   stroke-width="16.688"
   id="path27" />
      <path
   d="M 1.2761e-6,144.13 16.655001,153.7458 16.655,172.9778 2.761e-7,182.5936 -16.655,172.9778 l 1e-6,-19.232 z"
   clip-path="url(#clipPath123)"
   fill="#8c0814"
   id="path28" />
      <g
   fill="#2c1717"
   stroke="#2c1717"
   stroke-width="16.44"
   id="g30">
        <path
   d="M 7.608e-7,144.13 V 105.648"
   clip-path="url(#clipPath122)"
   id="path29" />
        <path
   d="m 116.4,105.65 v 38.482"
   clip-path="url(#clipPath121)"
   id="path30" />
      </g>
    </g>
    <rect
   x="-8.2189999"
   y="3.3647001"
   width="16.566999"
   height="30.785"
   fill="#2c1717"
   stroke-linecap="square"
   stroke-linejoin="bevel"
   stroke-width="16.494"
   id="rect31" />
  </g>
</svg>

<?xml version="1.0" encoding="UTF-8"?>
<!-- Created with Inkscape (http://www.inkscape.org/) -->
<svg width="100vw" height="100vh" version="1.1" viewBox="0 0 115.8 162.76" xml:space="preserve" xmlns="http://www.w3.org/2000/svg"><defs><clipPath id="clipPath121"><rect x=".00017794" y="-1.1066e-6" width="116.4" height="163.36" fill="#63ad65"/></clipPath><clipPath id="clipPath122"><rect x=".00017794" y="-1.1066e-6" width="116.4" height="163.36" fill="#63ad65"/></clipPath><clipPath id="clipPath123"><rect x=".00017794" y="-1.1066e-6" width="116.4" height="163.36" fill="#63ad65"/></clipPath><clipPath id="clipPath124"><rect x=".00017794" y="-1.1066e-6" width="116.4" height="163.36" fill="#63ad65"/></clipPath><clipPath id="clipPath125"><rect x=".00017794" y="-1.1066e-6" width="116.4" height="163.36" fill="#63ad65"/></clipPath><clipPath id="clipPath126"><rect x=".00017794" y="-1.1066e-6" width="116.4" height="163.36" fill="#63ad65"/></clipPath><clipPath id="clipPath127"><rect x=".00017794" y="-1.1066e-6" width="116.4" height="163.36" fill="#63ad65"/></clipPath><clipPath id="clipPath128"><rect x=".00017794" y="-1.1066e-6" width="116.4" height="163.36" fill="#63ad65"/></clipPath><clipPath id="clipPath129"><rect x=".00017794" y="-1.1066e-6" width="116.4" height="163.36" fill="#63ad65"/></clipPath><clipPath id="clipPath130"><rect x=".00017794" y="-1.1066e-6" width="116.4" height="163.36" fill="#63ad65"/></clipPath><clipPath id="clipPath131"><rect x=".00017794" y="-1.1066e-6" width="116.4" height="163.36" fill="#63ad65"/></clipPath><clipPath id="clipPath132"><rect x=".00017794" y="-1.1066e-6" width="116.4" height="163.36" fill="#63ad65"/></clipPath><clipPath id="clipPath133"><rect x=".00017794" y="-1.1066e-6" width="116.4" height="163.36" fill="#63ad65"/></clipPath><clipPath id="clipPath134"><rect x=".00017794" y="-1.1066e-6" width="116.4" height="163.36" fill="#63ad65"/></clipPath><clipPath id="clipPath135"><rect x=".00017794" y="-1.1066e-6" width="116.4" height="163.36" fill="#63ad65"/></clipPath><clipPath id="clipPath144"><path d="m-57.9-128.91h115.8v162.76h-115.8z" fill="#2c1717" stroke-linecap="square" stroke-linejoin="bevel" stroke-width="16.367"/></clipPath></defs><g transform="translate(57.9 128.91)" clip-path="url(#clipPath144)"><g transform="translate(-58.2,-129.21)" clip-path="none"><path d="m58.201 33.603 58.201 33.602v67.205l-58.201 33.602-58.201-33.602 1.3268e-6 -67.205z" clip-path="url(#clipPath135)" fill="#2c1717" stroke="#2c1717" stroke-width="16.694"/><path d="m58.2 52.729 41.637 24.039-2e-6 48.079-41.637 24.039-41.637-24.039 2e-6 -48.079z" clip-path="url(#clipPath134)" fill="#2c1717" stroke="#c9450e" stroke-width="16.688"/><path d="m58.2 81.576 16.655 9.6158-1e-6 19.232-16.655 9.6158-16.655-9.6158 1e-6 -19.232z" clip-path="url(#clipPath133)" fill="#8c0814"/><path d="m116.4 115.28 41.637 24.039v48.079l-41.637 24.039-41.637-24.039 2e-6 -48.079z" clip-path="url(#clipPath132)" fill="#2c1717" stroke="#c9450e" stroke-width="16.688"/><path d="m116.4 144.13 16.655 9.6158v19.232l-16.655 9.6158-16.655-9.6158 1e-6 -19.232z" clip-path="url(#clipPath131)" fill="#8c0814"/><path d="m116.4-67.204 58.201 33.602-1e-5 67.205-58.201 33.602-58.201-33.602 1e-6 -67.205z" clip-path="url(#clipPath130)" fill="#2c1717" stroke="#2c1717" stroke-width="16.694"/><path d="m116.4-48.078 41.637 24.039v48.079l-41.637 24.039-41.637-24.039 2e-6 -48.079z" clip-path="url(#clipPath129)" fill="#2c1717" stroke="#c9450e" stroke-width="16.688"/><path d="m116.4-19.231 16.655 9.6158v19.232l-16.655 9.6158-16.655-9.6158 1e-6 -19.232z" clip-path="url(#clipPath128)" fill="#8c0814"/><path d="m2.5615e-6 -67.204 58.201 33.602-2e-6 67.205-58.201 33.602-58.201-33.602 1e-6 -67.205z" clip-path="url(#clipPath127)" fill="#2c1717" stroke="#2c1717" stroke-width="16.694"/><path d="m2.0491e-6 -48.078 41.637 24.039-1e-6 48.079-41.637 24.039-41.637-24.039 2e-6 -48.079z" clip-path="url(#clipPath126)" fill="#2c1717" stroke="#c9450e" stroke-width="16.688"/><path d="m1.2761e-6 -19.231 16.655 9.6158-1e-6 19.232-16.655 9.6158-16.655-9.6158 1e-6 -19.232z" clip-path="url(#clipPath125)" fill="#8c0814"/><path d="m2.0491e-6 115.28 41.637 24.039-1e-6 48.079-41.637 24.039-41.637-24.039 2e-6 -48.079z" clip-path="url(#clipPath124)" fill="#2c1717" stroke="#c9450e" stroke-width="16.688"/><path d="m1.2761e-6 144.13 16.655 9.6158-1e-6 19.232-16.655 9.6158-16.655-9.6158 1e-6 -19.232z" clip-path="url(#clipPath123)" fill="#8c0814"/><g fill="#2c1717" stroke="#2c1717" stroke-width="16.44"><path d="m7.608e-7 144.13v-38.482" clip-path="url(#clipPath122)"/><path d="m116.4 105.65v38.482" clip-path="url(#clipPath121)"/></g></g><rect x="-8.219" y="3.3647" width="16.567" height="30.785" fill="#2c1717" stroke-linecap="square" stroke-linejoin="bevel" stroke-width="16.494"/></g></svg>
